X:1
T:Erla's Waltz
T:Erla's Waltz
T:  Ólafur Arnalds
C:Ólafur Arnalds
%%score { 1 | ( 2 3 ) }
L:1/8
Q:3/4=30
M:3/4
K:A
V:1 treble nm="Piano" snm="Pno."
V:2 bass 
V:3 bass 
V:1
 A6 | G6 | A2- A(B (3:2:2B A2 |{GA} G4) z2 |{A} G6 | F4- FG | F6 | ^E2- (EF GA) | B6 | A6 | %10
 B2- B(c/B/ (3:2:2c B2 |{AB} A4) A2 | G4 A2 | G6 | F4- FG | F2- F(G/F/ (3:2:2G F2 |{^ED)} E4- EF | %17
 (3(F=DF (3GFD (3FDF) | (3(FDF (3GFD (3FDF) | (3(FDF (3GFD (3FDF) | (3(FDF (3GFD (3FDF) | %21
 (3(FCF (3GFC (3FCF) | (3(FCF (3GFC (3FCF) | (3(^ECE (3GEC (3ECE) | (3(^ECE (3GEC (3ECE) | %25
 (3(FDF (3GFD (3FDF) | (3(FDF (3AFA (3cFD) | (3(FDF (3dFD (3FDF) | (3(Fdc (3BAG (3F^ED) | %29
 (3(FCF (3GFC (3FCF) | (3(FCF (3GFC (3ACF) | (3(^ECE (3GEC (3ECE) | (3(^ECE (3GEC (3EFG) | A4 z2 | %34
 G4 z2 | A2- A(B (3:2:2B A2 |{GA} G4) A2 | G6 | F4- FG | F6 | ^E4- EF | F6- | F6 |] %43
V:2
!pp! z z [A,C]2 [A,C]2 | z z [B,D]2 [B,D]2 | z z [A,C]2 [A,C]2 | z z [B,D]2 [B,D]2 | %4
 z z [B,C]2 [B,C]2 | z z [A,C]2 [A,C]2 | z z [G,C]2 [G,C]2 |!<(! z z [G,C]2 [G,C]2!<)! | %8
!mp! z z [A,D]2 [A,D]2 | z z [A,C]2 [A,C]2 | z z [A,D]2 [A,D]2 |!>(! z z [A,C]2 [A,C]2!>)! | %12
!pp! z z [^E,B,]2 [E,B,]2 | z z [F,B,]2 [F,B,]2 | z z [F,A,]2 [F,A,]2 | z z [F,A,]2 [F,A,]2 | %16
 z z [^E,B,]2 [E,B,]2 |!mf! z z [F,A,]2 [F,A,]2 | z z [F,A,]2 [F,A,]2 | z z [F,A,]2 [F,A,]2 | %20
 z z [F,G,]2 [F,G,]2 | z z [F,A,]2 [F,A,]2 | z z [F,A,]2 [F,A,]2 | z z [^E,G,]2 [E,G,]2 | %24
 z z [^E,B,]2 [E,B,]2 |!f! z z [D,F,]2 [D,F,]2 | z z [F,A,]2 [F,A,]2 | z z [D,B,]2 [D,B,]2 | %28
!>(! z z [F,B,]2 [F,A,]2!>)! |!mp! z z [F,A,]2 [F,A,]2 | z z [F,A,]2 [F,A,]2 | %31
!>(! z z [^E,G,]2 [E,G,]2 | z z [^E,G,]2 [E,G,]2!>)! |!pp! z z [A,C]2 [A,C]2 | z z [B,D]2 [B,D]2 | %35
 z z [A,C]2 [A,C]2 | z z [B,D]2 [B,D]2 | z z [B,C]2 [B,C]2 | z z [A,C]2 [A,C]2 | %39
 z z [G,C]2 [G,C]2 | z z [^E,B,]2 [E,B,]2 | z z [A,C]2 [A,C]2- | z z z4 |] %43
V:3
 D,6 | F,6 | F,6 | F,6 | F,6 | F,6 | F,6 | C,6 | F,6 | F,6 | F,6 | F,6 | C,6 | D,6 | D,6 | C,6 | %16
 C,6 | D,6 | D,6 | B,,6 | B,,6 | F,,6 | F,,6 | G,,6 | C,6 | A,,6 | A,,6 | B,,6 | B,,6 | C,6 | C,6 | %31
 C,6 | C,6 | F,6 | F,6 | F,6 | F,6 | F,6 | F,6 | F,6 | C,6 | F,6 | [A,C]6 |] %43

